X:1
L:1/4
Q:1/4=110
M:3/4
K:C
 (A/B/) | c A c | B G E | F3/2 G/ A | E2 e | c3/2 B/ A | d A B | ^G z A | A3/2 G/ F | E A c | 
 B ^G A | d2 B | c3/2 d/ (e/d/) | c B3/2 A/ | A2""^Chorus"" c | c G F | E3/2 D/ C | c d e | d B G | 
 A3/2 B/ c | d c B | A z c | F3/2 D/ (E/F/) | G3/2 G/ (A/B/) | c d e | c B A | G A d | B3/2 A/ ^G | 
 A2 |]
